X:896
T:Gavotte
T:From a 18th Century sonata
C:anon.
Z:Transcribed by Frank Nordberg - http://www.musicaviva.com
F:http://abc.musicaviva.com/tunes/anon/gavotte-d/gavotte-d-1.abc
M:C
L:1/8
K:D
a2f2|b2a2(AB)(cA)|d4(AB)(cA)|(de)(fd) (ge)(fd)|e4:|
|:(ae)(fd)|e2A2(ae)(fd)|e2A2 BABc|dcdeA2c2|d4:|
|:(fef)a|(fef)a (gfg)b|a4(AB)(cA)|(de)(fd) (ge)(fd)|e4(fef)a|
(fef)a (gfg)b| a4(AB)(cA)|d2e2A2c2|d4:|
|:(ede)a|(ede)a (cBcd)|e2A2(ede)a|(ede)a (cBcd)|
e2A2(fef)a|(fef)a (gfg)b|a4(AB)(cA)|(dc)(de)A2c2|d4:|
W:
W:
W:  From Musica Viva - http://www.musicaviva.com
W:  the Internet center for free sheet music downloads.
